src/assets/svgs/chat.svg

<svg width="32" height="32" viewBox="0 0 32 32" fill="none" xmlns="http://www.w3.org/2000/svg">
<path d="M25.3334 10.6667H24.0001V6.66666C24.0001 5.60579 23.5787 4.58838 22.8285 3.83823C22.0784 3.08808 21.0609 2.66666 20.0001 2.66666H6.66675C5.60588 2.66666 4.58847 3.08808 3.83832 3.83823C3.08818 4.58838 2.66675 5.60579 2.66675 6.66666V22.6667C2.66806 22.9299 2.74727 23.1868 2.89438 23.4051C3.04149 23.6234 3.24992 23.7933 3.49341 23.8933C3.65165 23.968 3.82518 24.0045 4.00008 24C4.17556 24.001 4.34951 23.9674 4.51196 23.901C4.67441 23.8347 4.82216 23.7369 4.94675 23.6133L8.69341 19.8533H10.6667V21.7733C10.6667 22.8342 11.0882 23.8516 11.8383 24.6018C12.5885 25.3519 13.6059 25.7733 14.6667 25.7733H23.8934L27.0534 28.9467C27.178 29.0702 27.3258 29.168 27.4882 29.2344C27.6507 29.3007 27.8246 29.3343 28.0001 29.3333C28.175 29.3378 28.3485 29.3013 28.5067 29.2267C28.7502 29.1266 28.9587 28.9568 29.1058 28.7385C29.2529 28.5202 29.3321 28.2632 29.3334 28V14.6667C29.3334 13.6058 28.912 12.5884 28.1618 11.8382C27.4117 11.0881 26.3943 10.6667 25.3334 10.6667ZM10.6667 14.6667V17.1867H8.14675C7.97127 17.1856 7.79732 17.2193 7.63487 17.2856C7.47242 17.352 7.32467 17.4497 7.20008 17.5733L5.33341 19.4533V6.66666C5.33341 6.31303 5.47389 5.9739 5.72394 5.72385C5.97399 5.4738 6.31313 5.33332 6.66675 5.33332H20.0001C20.3537 5.33332 20.6928 5.4738 20.9429 5.72385C21.1929 5.9739 21.3334 6.31303 21.3334 6.66666V10.6667H14.6667C13.6059 10.6667 12.5885 11.0881 11.8383 11.8382C11.0882 12.5884 10.6667 13.6058 10.6667 14.6667ZM26.6667 24.7867L25.3334 23.4533C25.2099 23.3273 25.0627 23.2271 24.9002 23.1585C24.7377 23.0898 24.5632 23.0541 24.3867 23.0533H14.6667C14.3131 23.0533 13.974 22.9128 13.7239 22.6628C13.4739 22.4128 13.3334 22.0736 13.3334 21.72V14.6667C13.3334 14.313 13.4739 13.9739 13.7239 13.7238C13.974 13.4738 14.3131 13.3333 14.6667 13.3333H25.3334C25.687 13.3333 26.0262 13.4738 26.2762 13.7238C26.5263 13.9739 26.6667 14.313 26.6667 14.6667V24.7867Z" fill="#B69D75"/>
</svg>

<svg width="32" height="32" fill="none" xmlns="http://www.w3.org/2000/svg"><path d="M25.333 10.667H24v-4a4 4 0 0 0-4-4H6.667a4 4 0 0 0-4 4v16a1.333 1.333 0 0 0 .826 1.226c.159.075.332.111.507.107a1.333 1.333 0 0 0 .947-.387l3.746-3.76h1.974v1.92a4 4 0 0 0 4 4h9.226l3.16 3.174a1.336 1.336 0 0 0 .947.386 1.12 1.12 0 0 0 .507-.106A1.334 1.334 0 0 0 29.333 28V14.667a4 4 0 0 0-4-4Zm-14.666 4v2.52h-2.52a1.333 1.333 0 0 0-.947.386l-1.867 1.88V6.667a1.333 1.333 0 0 1 1.334-1.334H20a1.333 1.333 0 0 1 1.333 1.334v4h-6.666a4 4 0 0 0-4 4Zm16 10.12-1.334-1.334a1.332 1.332 0 0 0-.946-.4h-9.72a1.334 1.334 0 0 1-1.334-1.333v-7.053a1.334 1.334 0 0 1 1.334-1.334h10.666a1.333 1.333 0 0 1 1.334 1.334v10.12Z" fill="#B69D75"/></svg>
